resources/svg/regular/filter.svg

<svg xmlns="http://www.w3.org/2000/svg" fill="currentColor" stroke="none" viewBox="0 0 24 24"><path d="M7 11h10v2H7zM4 7h16v2H4zm6 8h4v2h-4z"/></svg>

<svg xmlns="http://www.w3.org/2000/svg" fill="currentColor" stroke="none" viewBox="0 0 24 24"><path d="M7 11H17V13H7zM4 7H20V9H4zM10 15H14V17H10z"/></svg>
